64x64/apps/redirection.svg

<svg height="64" width="64" xmlns="http://www.w3.org/2000/svg"><rect height="56" opacity=".2" rx="2.8" width="56" x="4" y="5"/><rect fill="#c73638" height="56" rx="2.8" width="56" x="4" y="4"/><path d="m4 39v18.2c0 1.551 1.249 2.8 2.8 2.8h50.4c1.551 0 2.8-1.249 2.8-2.8v-18.2z" opacity=".3"/><path d="m11 11h42v36h-42z" fill="#2f2f2f"/><path d="m21 23h6v10h-6zm16 0h6v10h-6z" fill="#f4f4f7"/><path d="m25 51h14v4h-14z" opacity=".4"/><path d="m11 11h42v1h-42zm10 22h6v1h-6zm16 0h6v1h-6z" opacity=".2"/><path d="m6.8 4c-1.55 0-2.8 1.25-2.8 2.8v1c0-1.55 1.25-2.8 2.8-2.8h50.4c1.55 0 2.8 1.25 2.8 2.8v-1c0-1.55-1.25-2.8-2.8-2.8z" fill="#f4f4f7" opacity=".2"/></svg>

<svg xmlns="http://www.w3.org/2000/svg" width="64" height="64" version="1"><rect style="opacity:.2" width="56" height="56" x="4" y="5" rx="2.8" ry="2.8"/><rect style="fill:#c73638" width="56" height="56" x="4" y="4" rx="2.8" ry="2.8"/><path style="opacity:.3" d="M4 39v18.2C4 58.751 5.249 60 6.8 60h50.4c1.551 0 2.8-1.249 2.8-2.8V39z"/><path style="fill:#2f2f2f" d="M11 11h42v36H11z"/><path style="fill:#f4f4f7" d="M21 23h6v10h-6zM37 23h6v10h-6z"/><path style="opacity:.4" d="M25 51h14v4H25z"/><path style="opacity:.2" d="M11 11h42v1H11zM21 33h6v1h-6zM37 33h6v1h-6z"/><path style="fill:#f4f4f7;opacity:.2" d="M6.8 4C5.25 4 4 5.25 4 6.8v1C4 6.25 5.25 5 6.8 5h50.4C58.75 5 60 6.25 60 7.8v-1C60 5.25 58.75 4 57.2 4H6.8z"/></svg>
